X: 42
T: Missa De feria / Gloria
N: Derived from Rue1009b-Missa_De_feria-Gloria.krn
C: Pierre de la Rue
%%abc-version 2.0
%%abcx-abcm2ps-target-version 5.9.1 (29 Sep 2008)
%%abc-creator hum2abc beta
%%abcx-conversion-date 2019/02/17 08:01:11
%%abc-edited-by Jesse Rodin
%%abc-edited-by Chris Gage 01-15-2013
%%abcx-initial-encoding-date 2013/07/17/
%%humdrum-veritas 2812635647
%%humdrum-veritas-data 2816827704
%%linebreak <none>
%%barnumbers 0
L: 1/4
M: 4/2
Q: 1/2=120
V: 1 clef=treble
V: 2 clef=treble-8
V: 3 clef=treble-8
V: 4 clef=treble-8
V: 5 clef=bass
K: C
[V:1] z8 | 
[V:2] E8 | 
[V:3] z8 | 
[V:4] z8 | 
[V:5] z8 | 
[V:1] z8 | 
[V:2] G4A4- | 
[V:3] z8 | 
[V:4] z8 | 
[V:5] z8 | 
[V:1] E8 | 
[V:2] A2A2A4 | 
[V:3] z8 | 
[V:4] z8 | 
[V:5] z8 | 
[V:1] G4A4- | 
[V:2] z2B2A2c2- | 
[V:3] z8 | 
[V:4] z8 | 
[V:5] z8 | 
[V:1] A2A2A4 | 
[V:2] cBA4GF | 
[V:3] z8 | 
[V:4] z8 | 
[V:5] A,,8 | 
[V:1] z2G2F2A2- | 
[V:2] E4z4 | 
[V:3] z8 | 
[V:4] z8 | 
[V:5] C,4D,4- | 
[V:1] AGF4ED | 
[V:2] A4A4- | 
[V:3] z8 | 
[V:4] z8 | 
[V:5] D,2D,2D,4 | 
[V:1] C4z4 | 
[V:2] A2G2F2A2- | 
[V:3] z8 | 
[V:4] z8 | 
[V:5] z2E,2D,2F,2- | 
[V:1] z8 | 
[V:2] AGF4ED | 
[V:3] z8 | 
[V:4] z4A4 | 
[V:5] F,E,D,4C,B,, | 
[V:1] z2c2c2B2 | 
[V:2] E4z4 | 
[V:3] z4e4 | 
[V:4] A6G2 | 
[V:5] A,,4z4 | 
[V:1] A2c3BBA | 
[V:2] z8 | 
[V:3] e6d2 | 
[V:4] A4G4 | 
[V:5] z8 | 
[V:1] G4z4 | 
[V:2] z2c2B2A2 | 
[V:3] e4d4 | 
[V:4] E4z4 | 
[V:5] C,4D,2D,2 | 
[V:1] z2B2d2d2 | 
[V:2] G4z2G2 | 
[V:3] B4z4 | 
[V:4] z8 | 
[V:5] E,2D,C,B,,2B,,2 | 
[V:1] c2BAG2c2 | 
[V:2] A2GFE2A2 | 
[V:3] z8 | 
[V:4] z8 | 
[V:5] A,,4z4 | 
[V:1] B2A3GE2- | 
[V:2] G2F2E4- | 
[V:3] z8 | 
[V:4] z4z2A2- | 
[V:5] z2D,2C,3B,, | 
[V:1] E2c2c2B2 | 
[V:2] E4z4 | 
[V:3] z4z2e2- | 
[V:4] A2A4G2 | 
[V:5] A,,4z4 | 
[V:1] cBAGA4 | 
[V:2] z8 | 
[V:3] e2e4d2 | 
[V:4] AGFEF4 | 
[V:5] z8 | 
[V:1] G4z2c2 | 
[V:2] z8 | 
[V:3] edcBc4 | 
[V:4] E4A2A2- | 
[V:5] z8 | 
[V:1] d2B2c3B | 
[V:2] z8 | 
[V:3] B4e2e2- | 
[V:4] A2G2A3G | 
[V:5] z8 | 
[V:1] AGA2G2G2- | 
[V:2] z4z2E2 | 
[V:3] e2d2e3d | 
[V:4] F4E4 | 
[V:5] z4C,4 | 
[V:1] G2G4G2 | 
[V:2] E2G3AB2 | 
[V:3] c4B4 | 
[V:4] z8 | 
[V:5] E,6E,2 | 
[V:1] A2G2E4 | 
[V:2] A2B2c2BA | 
[V:3] z8 | 
[V:4] z8 | 
[V:5] F,2E,2C,4 | 
[V:1] z2E2E2G2- | 
[V:2] G4z2E2 | 
[V:3] z8 | 
[V:4] z8 | 
[V:5] z2C,2C,2C,2- | 
[V:1] G2G4FE | 
[V:2] E2G4A2 | 
[V:3] z8 | 
[V:4] z8 | 
[V:5] C,2E,4D,C, | 
[V:1] GEGABcB2- | 
[V:2] GAB3Ad2- | 
[V:3] z8 | 
[V:4] z8 | 
[V:5] E,3F,G,A,G,2- | 
[V:1] B2A3^GG2 | 
[V:2] dcBAB4 | 
[V:3] z8 | 
[V:4] z8 | 
[V:5] G,2A,2E,4 | 
[V:1] A4z2c2 | 
[V:2] A2F2E4- | 
[V:3] z8 | 
[V:4] z2A4A2 | 
[V:5] A,,8- | 
[V:1] c2c4c2 | 
[V:2] E4E4 | 
[V:3] z2e4e2 | 
[V:4] A2A4A2- | 
[V:5] A,,8 | 
[V:1] c2B2A2c2- | 
[V:2] z8 | 
[V:3] e2e4e2- | 
[V:4] A2G2A4 | 
[V:5] z8 | 
[V:1] c2BAG4- | 
[V:2] z8 | 
[V:3] e2d2e4 | 
[V:4] F4E4 | 
[V:5] z4C,4 | 
[V:1] G4z4 | 
[V:2] E4G4 | 
[V:3] c4B4 | 
[V:4] z8 | 
[V:5] C,2C,3D,E,2 | 
[V:1] z8 | 
[V:2] G4G4 | 
[V:3] z8 | 
[V:4] z8 | 
[V:5] E,2D,C,B,,4 | 
[V:1] z8 | 
[V:2] A4z2A2 | 
[V:3] z8 | 
[V:4] z8 | 
[V:5] z2A,,2C,3D, | 
[V:1] z8 | 
[V:2] G3ABcd2- | 
[V:3] z8 | 
[V:4] z8 | 
[V:5] E,F,G,3F,D,2 | 
[V:1] z2A2A2G2 | 
[V:2] dcBAB4 | 
[V:3] z8 | 
[V:4] z8 | 
[V:5] F,4E,4 | 
[V:1] A2GFE4 | 
[V:2] A4z2c2 | 
[V:3] z8 | 
[V:4] z8 | 
[V:5] A,,4z2A,2 | 
[V:1] z2E2E2F2 | 
[V:2] c2B2c2BA | 
[V:3] z8 | 
[V:4] z8 | 
[V:5] A,2G,2A,2G,F, | 
[V:1] G3FEDF2- | 
[V:2] G4c4 | 
[V:3] z8 | 
[V:4] z8 | 
[V:5] E,4A,4 | 
[V:1] F2E3DD2 | 
[V:2] B2G2A4 | 
[V:3] z8 | 
[V:4] z8 | 
[V:5] G,2E,2F,4 | 
[V:1] E4z2G2- | 
[V:2] B8 | 
[V:3] z8 | 
[V:4] z4E4 | 
[V:5] E,4z2E,2- | 
[V:1] G2G2G4 | 
[V:2] z8 | 
[V:3] z4B4 | 
[V:4] G4G4 | 
[V:5] E,2E,2E,2E,2 | 
[V:1] F2F4ED | 
[V:2] z8 | 
[V:3] d4d4 | 
[V:4] A4A4 | 
[V:5] D,6C,B,, | 
[V:1] C4z2c2 | 
[V:2] z2E4E2 | 
[V:3] e4e4 | 
[V:4] z2A2G2A2 | 
[V:5] A,,4z2A,,2 | 
[V:1] B2c2d2G2 | 
[V:2] G2C2F2ED | 
[V:3] z2e2d2e2 | 
[V:4] B2A4G2 | 
[V:5] G,,2A,,2B,,4 | 
[V:1] z2c2A3B | 
[V:2] C2A4A2 | 
[V:3] f2e4d2 | 
[V:4] A4F4 | 
[V:5] A,,4D,4 | 
[V:1] cAc4BA | 
[V:2] A4A4 | 
[V:3] e4c4 | 
[V:4] E8 | 
[V:5] C,2A,,3B,,C,D, | 
[V:1] G4z2G2- | 
[V:2] z2E2G2G2 | 
[V:3] B8 | 
[V:4] z2E4E2 | 
[V:5] E,4z2E,2- | 
[V:1] G2G2G2G2 | 
[V:2] E3FG2E2 | 
[V:3] z2B4B2 | 
[V:4] G4G4 | 
[V:5] E,2E,2E,2E,2 | 
[V:1] F3DFGAB | 
[V:2] F8 | 
[V:3] d4d4 | 
[V:4] A4A4 | 
[V:5] D,4D,3C, | 
[V:1] c2A4^G2 | 
[V:2] E8 | 
[V:3] e4e4 | 
[V:4] A4B4 | 
[V:5] A,,4E,4 | 
[V:1] A8 | 
[V:2] z2E2DEFG | 
[V:3] e4f4 | 
[V:4] A8 | 
[V:5] A,,4D,4 | 
[V:1] z2c2c2c2 | 
[V:2] A3Bc2A2 | 
[V:3] e8 | 
[V:4] z4z2A2- | 
[V:5] C,2A,,3B,,C,A,, | 
[V:1] BAB2c3B | 
[V:2] B4A4- | 
[V:3] z4z2e2- | 
[V:4] A2G2A2E2 | 
[V:5] E,4A,,4 | 
[V:1] A2GFG2E2- | 
[V:2] A4z2G2 | 
[V:3] e2d2e2B2 | 
[V:4] F4E4 | 
[V:5] z8 | 
[V:1] E2E3FGA | 
[V:2] A2E3DE2 | 
[V:3] c4B4 | 
[V:4] z2A4G2 | 
[V:5] A,,4E,4 | 
[V:1] B2c2A2A2- | 
[V:2] F2C2z2D2 | 
[V:3] z2e4d2 | 
[V:4] F2E2F4 | 
[V:5] D,2A,,2D,3C, | 
[V:1] A2B2Ac2B/A/ | 
[V:2] E2G2CDEF | 
[V:3] c2B2c4 | 
[V:4] E8- | 
[V:5] A,,2G,,2A,,4 | 
[V:1] G3AB4 | 
[V:2] G8- | 
[V:3] B8- | 
[V:4] E8- | 
[V:5] E,,8- | 
[V:1] E8 ||  
[V:2] G8 ||  
[V:3] B8 ||  
[V:4] E8 ||  
[V:5] E,,8 ||  
[V:1]  [K:C] [K:clef=treble][M:2/1]z4G4 | 
[V:2]  [K:C] [K:clef=treble-8][M:2/1]z8 | 
[V:3]  [K:C] [K:clef=treble-8][M:2/1]z8 | 
[V:4]  [K:C] [K:clef=treble-8][M:2/1]E8 | 
[V:5]  [K:C] [K:clef=bass][M:2/1]z4E,4 | 
[V:1] G4G4 | 
[V:2] z4E4 | 
[V:3] B8 | 
[V:4] G8 | 
[V:5] E,4E,4 | 
[V:1] F2F4ED | 
[V:2] F4F4 | 
[V:3] d8 | 
[V:4] A4A4 | 
[V:5] D,4D,4 | 
[V:1] C4E3F | 
[V:2] E4E2G2- | 
[V:3] e4e4 | 
[V:4] A4G3A | 
[V:5] A,,3B,,C,D,E,2- | 
[V:1] G2A2B4 | 
[V:2] GFE2F2D2 | 
[V:3] e4d3e | 
[V:4] B2A4G2 | 
[V:5] E,D,C,2B,,2B,,2 | 
[V:1] c3BA2GF | 
[V:2] C4F4 | 
[V:3] f2e4d2 | 
[V:4] A8 | 
[V:5] A,,4z4 | 
[V:1] E2c2c2B2 | 
[V:2] G2A2E4 | 
[V:3] e8 | 
[V:4] z8 | 
[V:5] z2A,2A,2G,2 | 
[V:1] c4A4 | 
[V:2] z2e2e2d2 | 
[V:3] z8 | 
[V:4] z8 | 
[V:5] A,4F,4 | 
[V:1] G8 | 
[V:2] e4c4 | 
[V:3] z8 | 
[V:4] z8 | 
[V:5] E,8- | 
[V:1] z2E4E2 | 
[V:2] B4z2B2- | 
[V:3] z8 | 
[V:4] z8 | 
[V:5] E,8 | 
[V:1] G2G2A4 | 
[V:2] B2c4d2 | 
[V:3] z8 | 
[V:4] z8 | 
[V:5] z2E,2F,2F,2 | 
[V:1] G3ABcd2- | 
[V:2] e2dcB4 | 
[V:3] z8 | 
[V:4] z8 | 
[V:5] E,2G,4F,E, | 
[V:1] dcABc2B2- | 
[V:2] d4c2d2- | 
[V:3] z8 | 
[V:4] z8 | 
[V:5] D,E,F,G,A,2G,2 | 
[V:1] B2A3^GG2 | 
[V:2] dcBAB4 | 
[V:3] z8 | 
[V:4] z8 | 
[V:5] A,4E,4 | 
[V:1] A8 | 
[V:2] A2E2F4 | 
[V:3] z8 | 
[V:4] z4A4 | 
[V:5] A,,8- | 
[V:1] z4c4 | 
[V:2] E8- | 
[V:3] z4e4 | 
[V:4] A2A4A2 | 
[V:5] A,,8- | 
[V:1] c2c4c2 | 
[V:2] E8 | 
[V:3] e2e4e2 | 
[V:4] A2A2A3G | 
[V:5] A,,8 | 
[V:1] c2B2c2c2 | 
[V:2] z2B2A2A2 | 
[V:3] e2e2e3d | 
[V:4] A2G2A4 | 
[V:5] z8 | 
[V:1] B3GA2G2- | 
[V:2] B2B2c3B | 
[V:3] e2d2e4 | 
[V:4] G4E4 | 
[V:5] z4C,4 | 
[V:1] G2^F2G4 | 
[V:2] A4G4 | 
[V:3] d4B4 | 
[V:4] z4E4 | 
[V:5] D,4E,2G,2- | 
[V:1] z2G4G2 | 
[V:2] z8 | 
[V:3] z4B4 | 
[V:4] G8 | 
[V:5] G,F,E,D,E,4 | 
[V:1] F6ED | 
[V:2] z8 | 
[V:3] d8 | 
[V:4] A8 | 
[V:5] D,8 | 
[V:1] C2A2c2B2 | 
[V:2] c4A2B2 | 
[V:3] e8 | 
[V:4] A4A2G2 | 
[V:5] z8 | 
[V:1] B2A3^GG2 | 
[V:2] c4G4 | 
[V:3] e4e2d2 | 
[V:4] A4B4 | 
[V:5] z8 | 
[V:1] A4z4 | 
[V:2] c4A2A2- | 
[V:3] e4f4 | 
[V:4] A8 | 
[V:5] A,,4D,4 | 
[V:1] z2c2c2B2 | 
[V:2] A2GFE4 | 
[V:3] e8 | 
[V:4] A4A2G2 | 
[V:5] C,2A,,2E,4 | 
[V:1] c2A2B3G | 
[V:2] z4z2B2 | 
[V:3] e4e2d2 | 
[V:4] A4G4 | 
[V:5] A,,2A,2E,2G,2 | 
[V:1] A2G4F2 | 
[V:2] c3BA2A2 | 
[V:3] e4d4 | 
[V:4] E4z4 | 
[V:5] C,4D,4 | 
[V:1] G2E3DD2 | 
[V:2] G4z4 | 
[V:3] B4z4 | 
[V:4] z4(3A2A2A2 | 
[V:5] E,2E,2F,4 | 
[V:1] E4z4 | 
[V:2] (3B2B2B2c2c2 | 
[V:3] z4(3e2e2e2 | 
[V:4] G2G2A4 | 
[V:5] E,4A,,4 | 
[V:1] z2A2G2G2 | 
[V:2] A4B4 | 
[V:3] d2d2e4 | 
[V:4] F4E4 | 
[V:5] z8 | 
[V:1] A2F2E4 | 
[V:2] A4z2B2 | 
[V:3] c4B4 | 
[V:4] z2A2G2G2 | 
[V:5] z8 | 
[V:1] z4z2A2- | 
[V:2] c2c2A4 | 
[V:3] z2e2d2d2 | 
[V:4] A3GF4 | 
[V:5] z8 | 
[V:1] A2G2A2c2 | 
[V:2] B4A3G | 
[V:3] e3dc4 | 
[V:4] E4z2A2- | 
[V:5] z4A,,4 | 
[V:1] d2B2c2BA | 
[V:2] F2D2E4 | 
[V:3] B4z2e2- | 
[V:4] A2G2A2A2 | 
[V:5] B,,4A,,4 | 
[V:1] G4G4 | 
[V:2] z8 | 
[V:3] e2d2e2e2 | 
[V:4] B2B2G4 | 
[V:5] E,2G,3F,E,2 | 
[V:1] F2D2F4 | 
[V:2] z8 | 
[V:3] f2f2d4 | 
[V:4] A4F4 | 
[V:5] D,8 | 
[V:1] E2G3EG2 | 
[V:2] z8 | 
[V:3] e4c4 | 
[V:4] G4E4 | 
[V:5] C,4E,4 | 
[V:1] FEDCD2ED | 
[V:2] z8 | 
[V:3] d4B4 | 
[V:4] F8 | 
[V:5] D,4D,4 | 
[V:1] E4z2E2 | 
[V:2] A4A4 | 
[V:3] c8 | 
[V:4] E8 | 
[V:5] A,,8 | 
[V:1] G4G4 | 
[V:2] G6G2 | 
[V:3] B8 | 
[V:4] z8 | 
[V:5] E,4E,2E,2 | 
[V:1] A4B4 | 
[V:2] c2d2B2e2- | 
[V:3] z8 | 
[V:4] z4E4 | 
[V:5] F,4G,4 | 
[V:1] G4z2G2 | 
[V:2] e2dcB2E2 | 
[V:3] z4B4 | 
[V:4] G8 | 
[V:5] E,4z2E,2 | 
[V:1] F2A4B2 | 
[V:2] F2D2F4 | 
[V:3] d8 | 
[V:4] A8 | 
[V:5] D,4D,4 | 
[V:1] c2A3^GG2 | 
[V:2] E3FG4 | 
[V:3] e8 | 
[V:4] A4B4 | 
[V:5] A,,4E,4 | 
[V:1] A4z2A2 | 
[V:2] E2E4D2 | 
[V:3] e4f4 | 
[V:4] A4z2A2 | 
[V:5] A,,4D,4 | 
[V:1] c2c2c2B2 | 
[V:2] E8 | 
[V:3] e4z2e2 | 
[V:4] A2A2A2G2 | 
[V:5] C,2A,,B,,C,D,E,2 | 
[V:1] A2c4BA | 
[V:2] z8 | 
[V:3] e2e2e2d2 | 
[V:4] A4G2F2 | 
[V:5] A,,4z4 | 
[V:1] G8 | 
[V:2] z4G4 | 
[V:3] e4d2c2 | 
[V:4] E8 | 
[V:5] C,4C,2C,2 | 
[V:1] z4G4- | 
[V:2] G6F2 | 
[V:3] B8 | 
[V:4] z4E4- | 
[V:5] E,6D,2 | 
[V:1] G2A2B2c2 | 
[V:2] E2DCD4 | 
[V:3] z4B4- | 
[V:4] E2F2G4- | 
[V:5] C,2B,,A,,G,,4- | 
[V:1] d6cB | 
[V:2] D6E2 | 
[V:3] B2c2d4- | 
[V:4] G2FED4- | 
[V:5] G,,2A,,2B,,2C,2 | 
[V:1] A8 | 
[V:2] F6ED | 
[V:3] d2cBA4- | 
[V:4] D2E2F2G2 | 
[V:5] D,6C,B,, | 
[V:1] c4c2c2- | 
[V:2] C4C4- | 
[V:3] A2B2c2d2 | 
[V:4] A8 | 
[V:5] A,,8 | 
[V:1] c2BAG2A2 | 
[V:2] C2D2E2C2 | 
[V:3] e8 | 
[V:4] G4E4 | 
[V:5] C,8 | 
[V:1] B4B2G2- | 
[V:2] D8- | 
[V:3] d4B4 | 
[V:4] G8 | 
[V:5] G,,8 | 
[V:1] G2FED4 | 
[V:2] D8 | 
[V:3] d8 | 
[V:4] G6F2 | 
[V:5] G,,6A,,2 | 
[V:1] D2G3FE2- | 
[V:2] z8 | 
[V:3] d6c2 | 
[V:4] D4E4 | 
[V:5] B,,4C,4 | 
[V:1] E2DCD4 | 
[V:2] z4D4 | 
[V:3] A4B4 | 
[V:4] F8 | 
[V:5] D,8 | 
[V:1] E8 | 
[V:2] A8 | 
[V:3] c8 | 
[V:4] E8- | 
[V:5] A,,8 | 
[V:1] E8- | 
[V:2] G8 | 
[V:3] B8- | 
[V:4] E8- | 
[V:5] z4E,,4 | 
[V:1] E8 |]  
[V:2] G8 |]  
[V:3] B8 |]  
[V:4] E8 |]  
[V:5] E,,8 |]  



